src/data/flags/chiba.svg

<?xml version="1.0" encoding="UTF-8" standalone="no"?>
<!-- Created with Inkscape (http://www.inkscape.org/) -->

<svg
   xmlns:dc="http://purl.org/dc/elements/1.1/"
   xmlns:cc="http://creativecommons.org/ns#"
   xmlns:rdf="http://www.w3.org/1999/02/22-rdf-syntax-ns#"
   xmlns:svg="http://www.w3.org/2000/svg"
   xmlns="http://www.w3.org/2000/svg"
   xmlns:sodipodi="http://sodipodi.sourceforge.net/DTD/sodipodi-0.dtd"
   xmlns:inkscape="http://www.inkscape.org/namespaces/inkscape"
   width="600"
   height="400"
   id="svg3692"
   sodipodi:version="0.32"
   inkscape:version="0.92.1 r15371"
   sodipodi:docname="Flag_of_Chiba_Prefecture.svg"
   version="1.0">
  <defs
     id="defs3694">
    <marker
       inkscape:stockid="Scissors"
       orient="auto"
       refY="0.0"
       refX="0.0"
       id="Scissors"
       style="overflow:visible">
      <path
         id="schere"
         style="marker-start:none"
         d="M 9.0898857,-3.6061018 C 8.1198849,-4.7769976 6.3697607,-4.7358294 5.0623558,-4.2327734 L -3.1500488,-1.1548705 C -5.5383421,-2.4615840 -7.8983361,-2.0874077 -7.8983361,-2.7236578 C -7.8983361,-3.2209742 -7.4416699,-3.1119800 -7.5100293,-4.4068519 C -7.5756648,-5.6501286 -8.8736064,-6.5699315 -10.100428,-6.4884954 C -11.327699,-6.4958500 -12.599867,-5.5553341 -12.610769,-4.2584343 C -12.702194,-2.9520479 -11.603560,-1.7387447 -10.304005,-1.6532027 C -8.7816644,-1.4265411 -6.0857470,-2.3487593 -4.8210600,-0.082342643 C -5.7633447,1.6559151 -7.4350844,1.6607341 -8.9465707,1.5737277 C -10.201445,1.5014928 -11.708664,1.8611256 -12.307219,3.0945882 C -12.885586,4.2766744 -12.318421,5.9591904 -10.990470,6.3210002 C -9.6502788,6.8128279 -7.8098011,6.1912892 -7.4910978,4.6502760 C -7.2454393,3.4624530 -8.0864637,2.9043186 -7.7636052,2.4731223 C -7.5199917,2.1477623 -5.9728246,2.3362771 -3.2164999,1.0982979 L 5.6763468,4.2330688 C 6.8000164,4.5467672 8.1730685,4.5362646 9.1684433,3.4313614 L -0.051640930,-0.053722219 L 9.0898857,-3.6061018 z M -9.2179159,-5.5066058 C -7.9233569,-4.7838060 -8.0290767,-2.8230356 -9.3743431,-2.4433169 C -10.590861,-2.0196559 -12.145370,-3.2022863 -11.757521,-4.5207817 C -11.530373,-5.6026336 -10.104134,-6.0014137 -9.2179159,-5.5066058 z M -9.1616516,2.5107591 C -7.8108215,3.0096239 -8.0402087,5.2951947 -9.4138723,5.6023681 C -10.324932,5.9187072 -11.627422,5.4635705 -11.719569,4.3902287 C -11.897178,3.0851737 -10.363484,1.9060805 -9.1616516,2.5107591 z " />
    </marker>
    <marker
       inkscape:stockid="Arrow1Lstart"
       orient="auto"
       refY="0.0"
       refX="0.0"
       id="Arrow1Lstart"
       style="overflow:visible">
      <path
         id="path6498"
         d="M 0.0,0.0 L 5.0,-5.0 L -12.5,0.0 L 5.0,5.0 L 0.0,0.0 z "
         style="fill-rule:evenodd;stroke:#000000;stroke-width:1.0pt;marker-start:none"
         transform="scale(0.8) translate(12.5,0)" />
    </marker>
  </defs>
  <sodipodi:namedview
     id="base"
     pagecolor="#ffffff"
     bordercolor="#666666"
     borderopacity="1.0"
     gridtolerance="10000"
     guidetolerance="10"
     objecttolerance="10"
     inkscape:pageopacity="0.0"
     inkscape:pageshadow="2"
     inkscape:zoom="1.6790704"
     inkscape:cx="315.81504"
     inkscape:cy="206.58234"
     inkscape:document-units="px"
     inkscape:current-layer="layer1"
     inkscape:window-width="1920"
     inkscape:window-height="1018"
     inkscape:window-x="-8"
     inkscape:window-y="-8"
     showgrid="false"
     inkscape:lockguides="true"
     inkscape:window-maximized="1" />
  <metadata
     id="metadata3697">
    <rdf:RDF>
      <cc:Work
         rdf:about="">
        <dc:format>image/svg+xml</dc:format>
        <dc:type
           rdf:resource="http://purl.org/dc/dcmitype/StillImage" />
      </cc:Work>
    </rdf:RDF>
  </metadata>
  <g
     inkscape:label="Layer 1"
     inkscape:groupmode="layer"
     id="layer1">
    <rect
       style="opacity:1;color:black;fill:#1a15a3;fill-opacity:1;fill-rule:evenodd;stroke:none;stroke-width:1px;stroke-linecap:butt;stroke-linejoin:miter;marker:none;marker-start:none;marker-mid:none;marker-end:none;stroke-miterlimit:4;stroke-dasharray:none;stroke-dashoffset:0;stroke-opacity:1;visibility:visible;display:inline;overflow:visible"
       id="rect3700"
       width="600"
       height="400"
       x="0"
       y="0" />
    <path
       style="fill:white;fill-rule:evenodd;stroke:#ffec50;stroke-width:3.327;stroke-linecap:butt;stroke-linejoin:miter;stroke-opacity:1;stroke-miterlimit:4;stroke-dasharray:none"
       d="M 300 104.93555 L 282.41797 167.29102 L 184.74023 133.45508 L 261.58008 200 L 184.74023 266.54492 L 280.78906 233.27148 L 300 333.08984 L 319.21094 233.27148 L 415.25977 266.54492 L 338.41992 200 L 415.25977 133.45508 L 317.58203 167.29102 L 300 104.93555 z "
       id="path1902" />
    <path
       style="fill:white;fill-rule:evenodd;stroke:white;stroke-width:3.327;stroke-linecap:butt;stroke-linejoin:miter;stroke-opacity:1;stroke-miterlimit:4;stroke-dasharray:none;fill-opacity:1"
       d="M 300.0002,66.908818 L 273.382,104.93482 L 300.0002,142.96082 L 326.6184,104.93482 L 300.0002,66.908818 z "
       id="path3680" />
    <path
       style="fill:none;fill-rule:evenodd;stroke:#ffec50;stroke-width:3.327;stroke-linecap:butt;stroke-linejoin:miter;stroke-opacity:1;stroke-miterlimit:4;stroke-dasharray:none"
       d="M 184.74002,133.45432 L 276.94816,213.30892 L 300.0002,333.09082 L 323.05224,213.30892 L 415.26039,133.45432"
       id="path2778"
       sodipodi:nodetypes="ccccc" />
    <path
       style="fill:none;fill-rule:evenodd;stroke:#ffec50;stroke-width:3.3269999;stroke-linecap:butt;stroke-linejoin:miter;stroke-miterlimit:4;stroke-dasharray:none;stroke-opacity:1;marker-start:none"
       d="M 289.82143,140.93749 L 292.32143,132.05357 L 273.32777,104.93341 L 300.01105,66.848282 L 326.66333,104.94753 L 307.68117,132.02941 L 311.60714,146.02677"
       id="path5438"
       sodipodi:nodetypes="ccccccc" />
  </g>
</svg>

<svg xmlns="http://www.w3.org/2000/svg" width="600" height="400" version="1.0"><path style="marker:none" color="#000" fill="#1a15a3" fill-rule="evenodd" overflow="visible" d="M0 0h600v400H0z"/><path d="M300 104.936l-17.582 62.355-97.678-33.836L261.58 200l-76.84 66.545 96.05-33.274L300 333.09l19.21-99.819 96.05 33.274L338.42 200l76.84-66.545-97.678 33.836L300 104.936z" fill="#fff" fill-rule="evenodd" stroke="#ffec50" stroke-width="3.327"/><path d="M300 66.909l-26.618 38.026L300 142.96l26.618-38.026L300 66.909z" fill="#fff" fill-rule="evenodd" stroke="#fff" stroke-width="3.327"/><path d="M184.74 133.454l92.208 79.855L300 333.09l23.052-119.782 92.208-79.855" fill="none" stroke="#ffec50" stroke-width="3.327"/><path d="M289.821 140.937l2.5-8.883-18.993-27.12 26.683-38.086 26.652 38.1-18.982 27.081 3.926 13.998" fill="none" stroke="#ffec50" stroke-width="3.327"/></svg>
